public/work/fly-fut/icon.svg

<svg height="1024" viewBox="0 0 1024 1024" width="1024" xmlns="http://www.w3.org/2000/svg"><path d="m224.114365 744.276489c-10.660645-4.302063-10.978547-6.425171-10.978547-73.319458v-62.14331l5.03032-5.030274 5.030288-5.030395h92.315384 92.315369v-56.357971-56.358033l-91.709869-.065185c-68.860093-.048889-92.52005-.687195-94.961564-2.561707-6.654571-5.109253-8.019928-11.423156-8.019928-37.087036 0-24.144653.287964-25.972656 4.944657-31.387817l4.944641-5.750122 92.401031-.57312 92.401032-.57306v-59.371398c0-56.383912.203613-59.574952 4.046631-63.417969 2.225677-2.225647 6.145111-4.559021 8.709869-5.185303 2.56482-.626221 89.357178-.880249 192.872009-.564453l188.20868.574158 5.028686 5.846618 5.028565 5.846619-.595337 63.503418-.595337 63.503357-4.838135 3.915466c-4.685913 3.792175-10.896057 3.915405-197.253174 3.915405h-192.414947v20.493897 20.493774h191.774994 191.774902l5.99054 5.99054 5.990478 5.990478v60.749146c0 61.82373-.512146 66.434204-8.019958 72.198486-2.501404 1.920532-47.582032 2.511597-195.381287 2.561768l-192.129669.065124v59.566834c0 34.935791-.829499 61.116821-2.006104 63.315307-1.103393 2.061707-4.92984 4.767701-8.503326 6.013428-7.852356 2.737366-174.664139 2.951416-181.400894.232788z" fill="#fc4e4e"/></svg>

<?xml version="1.0" encoding="UTF-8"?>
<!-- Generated by Pixelmator Pro 3.8 -->
<svg width="1024" height="1024" viewBox="0 0 1024 1024" xmlns="http://www.w3.org/2000/svg">
    <g id="work">
        <path id="fly-fut" fill="#fc4e4e" stroke="none" d="M 224.114365 744.276489 C 213.45372 739.974426 213.135818 737.851318 213.135818 670.957031 L 213.135818 608.813721 L 218.166138 603.783447 L 223.196426 598.753052 L 315.51181 598.753052 L 407.827179 598.753052 L 407.827179 542.395081 L 407.827179 486.037048 L 316.11731 485.971863 C 247.257217 485.922974 223.59726 485.284668 221.155746 483.410156 C 214.501175 478.300903 213.135818 471.987 213.135818 446.32312 C 213.135818 422.178467 213.423782 420.350464 218.080475 414.935303 L 223.025116 409.185181 L 315.426147 408.612061 L 407.827179 408.039001 L 407.827179 348.667603 C 407.827179 292.283691 408.030792 289.092651 411.87381 285.249634 C 414.099487 283.023987 418.018921 280.690613 420.583679 280.064331 C 423.148499 279.43811 509.940857 279.184082 613.455688 279.499878 L 801.664368 280.074036 L 806.693054 285.920654 L 811.721619 291.767273 L 811.126282 355.270691 L 810.530945 418.774048 L 805.69281 422.689514 C 801.006897 426.481689 794.796753 426.604919 608.439636 426.604919 L 416.024689 426.604919 L 416.024689 447.098816 L 416.024689 467.59259 L 607.799683 467.59259 L 799.574585 467.59259 L 805.565125 473.58313 L 811.555603 479.573608 L 811.555603 540.322754 C 811.555603 602.146484 811.043457 606.756958 803.535645 612.52124 C 801.034241 614.441772 755.953613 615.032837 608.154358 615.083008 L 416.024689 615.148132 L 416.024689 674.714966 C 416.024689 709.650757 415.19519 735.831787 414.018585 738.030273 C 412.915192 740.09198 409.088745 742.797974 405.515259 744.043701 C 397.662903 746.781067 230.85112 746.995117 224.114365 744.276489 Z"/>
    </g>
</svg>
